.local/share/icons/Gruvbox-Plus-Dark/actions/16/osd-rotate-flip.svg

<svg xmlns="http://www.w3.org/2000/svg" width="16" height="16" version="1.1">
 <defs>
  <style id="current-color-scheme" type="text/css">
   .ColorScheme-Text { color:#555555; } .ColorScheme-Highlight { color:#4285f4; } .ColorScheme-NeutralText { color:#ff9800; } .ColorScheme-PositiveText { color:#4caf50; } .ColorScheme-NegativeText { color:#f44336; }
  </style>
 </defs>
 <path style="fill:currentColor" class="ColorScheme-Text" d="M 12.5 8 A 3.5 3.5 0 0 0 9 11.5 A 3.5 3.5 0 0 0 12.5 15 A 3.5 3.5 0 0 0 16 11.5 A 3.5 3.5 0 0 0 12.5 8 z M 12.5 9 L 13.25 10 L 14 11 L 13 11 L 13 12 L 14 12 L 13.25 13 L 12.5 14 L 11.75 13 L 11 12 L 12 12 L 12 11 L 11 11 L 11.75 10 L 12.5 9 z"/>
 <path style="fill:currentColor" class="ColorScheme-Text" d="M 2.4003906 3 C 1.6247906 3 1 3.6363058 1 4.4277344 L 1 11.572266 C 1 12.363694 1.6247906 13 2.4003906 13 L 8.2675781 13 A 4.5 4.5 0 0 1 8 11.5 A 4.5 4.5 0 0 1 12.5 7 A 4.5 4.5 0 0 1 15 7.7578125 L 15 4.4277344 C 15 3.6363058 14.375209 3 13.599609 3 L 2.4003906 3 z"/>
</svg>

<svg width="16" height="16" version="1.1" xmlns="http://www.w3.org/2000/svg">
  <defs>
    <style id="current-color-scheme" type="text/css">.ColorScheme-Text { color:#ebdbb2; } .ColorScheme-Highlight { color:#458588; }</style>
  </defs>
  <path class="ColorScheme-Text" d="m12.5 8a3.5 3.5 0 0 0-3.5 3.5 3.5 3.5 0 0 0 3.5 3.5 3.5 3.5 0 0 0 3.5-3.5 3.5 3.5 0 0 0-3.5-3.5zm0 1 1.5 2h-1v1h1l-1.5 2-1.5-2h1v-1h-1l1.5-2z" fill="currentColor"/>
  <path class="ColorScheme-Text" d="m2.4 3c-0.7756 0-1.4 0.6363-1.4 1.428v7.145c0 0.7914 0.6248 1.428 1.4 1.428h5.867a4.5 4.5 0 0 1-0.2676-1.5 4.5 4.5 0 0 1 4.5-4.5 4.5 4.5 0 0 1 2.5 0.7578v-3.33c0-0.7914-0.6248-1.428-1.4-1.428h-11.2z" fill="currentColor"/>
</svg>
